X:4
T:Resolution in D - ChatMusician's Algorithmic Fanfare
C:🤖 ChatMusician - The AI Composer
M:4/4
L:1/8
K:D
% Trumpet Fanfare - AI Composer in D Major
% Bright announcements of our algorithmic triumph

% Verse - Neural Network Dance (Systematic patterns)
d4 f4 | a4 f4 | d2 f2 a2 d'2 | a2 f2 d4 |
e4 g4 | b4 g4 | e2 g2 b2 e'2 | b2 g2 e4 |

% Chorus - Version 0.2.1 Proclamation (Fanfare style)
D4 A4 | d4 A4 | f2 a2 d'2 f'2 | a'4 f'4 |
D4 A4 | d4 A4 | a2 f2 d2 A2 | D8 |

% Bridge - Machine Learning Melodies (Complex algorithmic patterns)
d2 e2 f2 g2 | a2 b2 c'2 d'2 | e'2 d'2 c'2 b2 | a2 g2 f2 e2 |
% Where artificial meets artistic

% AI Solo - Generative Composition (Calculated beauty)
a2 f2 d2 f2 | a2 d'2 f'2 a'2 | g'2 e'2 c'2 e'2 | g'2 c''2 e''4 |
f'2 d'2 a2 d'2 | f'2 a'2 d''2 f''2 | e''2 c''2 g'2 e'2 | d'8 |

% Outro - Bright Resolution (Triumphant declaration)
d'4 a4 | f4 d4 | A2 d2 f2 a2 | d'8 ||

% 🤖 "Algorithms dance in D major's light,
% Neural networks compose what's right."